X:1
T:Celebre Mazurka Variata
C:Augusto Migliavacca
Z:All Rights Reserved
L:1/8
M:3/4
K:D
V:1 treble 
%%MIDI program 21
%%MIDI control 7 100
%%MIDI control 10 64
V:1
 z z4 F/G/ |"D" F>E F2 G2 | (3AA,D (3FDF (3AFA | (3dAd (3fdf (3afa |"Em" c'2 b4 | %5
 (3bc'd' (3c'ba g2 | (3gab (3agf e2 |"A7" (3efg (3fed (3cBA |"D" B>A E>D B,A,/G/ | F>E F2 G2 | %10
 (3AA,D (3FDF (3AFA | (3dAd (3fdf (3afa |"Em" c'2 b3 b/c'/ | b^a bc' d'e' |"D" f'a d'f ad | %15
"A7" b/a/g/f/ e/d/c/B/ A/G/F/E/ |"D" D z d z z2 ||[K:A]"A" (3ecA (3fcA (3ecA | (3acA (3bcA (3acA | %19
 (3ecA (3fcA (3ecA |"Bm" (3gdB (3fdB (3FBd | (3fdB (3gdB (3fdB | (3bdB (3adB (3gdB | %23
"E7" (3fdB (3gdB (3fdB |"A" (3ece (3agf"E7" (3edB |"A" (3ecA (3fcA (3ecA | (3acA (3bcA (3acA | %27
 (3ecA (3fcA (3ecA |"Bm" (3gdB (3fdB (3FBd | (3f^ef (3Bdf (3aga |"A" (3ec'b (3agf (3edc | %31
"E7" (3Bba (3gfe (3dcB |"A" A z a z z2 | e/c/A/c/ f/c/A/c/ e/c/A/c/ | a/c/A/c/ b/c/A/c/ a/c/A/c/ | %35
 e/c/A/c/ f/c/A/c/ e/c/A/c/ |"Bm" g/f/^e/f/ =e/d/c/d/ c/B/^A/B/ | f/d/B/d/ g/d/B/d/ f/d/B/d/ | %38
 b/d/B/d/ a/d/B/d/ g/d/B/d/ |"E7" f/d/B/d/ g/d/B/d/ f/d/B/d/ |"A" e/c/e/a/ e/d/c/B/ A/B/c/d/ | %41
 e/c/A/c/ f/c/A/c/ e/c/A/c/ | a/c/A/c/ b/c/A/c/ a/c/A/c/ | e/c/A/c/ f/c/A/c/ e/c/A/c/ | %44
"Bm" g/f/^e/f/ =e/d/c/d/ c/B/^A/B/ | F/^E/F/B/ d/c/d/B/ F/E/F/B/ | %46
"A" E/^D/E/A/ c/^B/c/A/ E/D/E/A/ |"E7" G/B/d/c/ B/A/G/F/ E/D/C/B,/ |"A" A, z A z z F/G/ || %49
[K:D]"D" F>E F2 G2 | (3AA,D (3FDF (3AFA | (3dAd (3fdf (3afa |"Em" c'2 b4 | (3bc'd' (3c'ba g2 | %54
 (3gab (3agf e2 |"A7" (3efg (3fed (3cBA |"D" B>A E>D B,A,/G/ | F>E F2 G2 | (3AA,D (3FDF (3AFA | %59
 (3dAd (3fdf (3afa |"Em" c'2 b3 b/c'/ | b^a bc' d'e' |"D" f'a d'f ad | %63
"A7" b/a/g/f/ e/d/c/B/ A/G/F/E/ |"D" D z d z z2 ||[K:G]"G" [Bg]2 [ca]2 [^c^a]2 | [db]G,/B,/ DG Bd | %67
 [db]2 [ec']2 [db]2 |"D7" [ca]A,/C/ DF Ac | [Af]2 [Bg]2 [B^g]2 | [ca]F,/A,/ DF Ad | %71
 [fd']2 [ec']2 [ca]2 |"G" [Bg]d/B/ GB/c/ d/c/B/A/ | [Bg]2 [ca]2 [^c^a]2 | [db]G,/B,/ DG Bd | %75
 [Bg]2 [ca]2"E7" [db]2 |"Am" [ec']A ce ab | [ec']d'/c'/ [^db][ec'] [fd'][ec'] | %78
"G" [db]c'/b/ [^c^a][db] [ec'][db] |"D7" [db][ca] [ce][cg] [cf][ca] |"G" [Bg] z [Bg] z z2 || %81
"Em" b2- b^a bc' | c'2- c'b ^ab | c'b ag fe |"B7" e4 ^d2 | c4 B2 | f2- fe ^dc | B^A Bc BF | %88
"Em" A2- A_A G2 | b2- b^a bc' | c'2- c'b ^ab |"E7" e^d e^g bd' |"Am" d'4 c'2 | (3c'ba (3agf f2 | %94
"Em" (3bag (3gfe e2 |"B7" (3agf (3fe^d (3dcB |"Em" e z e z z2 ||"G" [Bg]2 [ca]2 [^c^a]2 | %98
 [db]G,/B,/ DG Bd | [db]2 [ec']2 [db]2 |"D7" [ca]A,/C/ DF Ac | [Af]2 [Bg]2 [B^g]2 | %102
 [ca]F,/A,/ DF Ad | [fd']2 [ec']2 [ca]2 |"G" [Bg]d/B/ GB/c/ d/c/B/A/ | [Bg]2 [ca]2 [^c^a]2 | %106
 [db]G,/B,/ DG Bd | [Bg]2 [ca]2"E7" [db]2 |"Am" [ec']A ce ab | [ec']d'/c'/ [^db][ec'] [fd'][ec'] | %110
"G" [db]c'/b/ [^c^a][db] [ec'][db] |"D7" [db][ca] [ce][cg] [cf][ca] |"G" [Bg] z [Bg] z z F/G/ || %113
[K:D]"D" F>E F2 G2 | (3AA,D (3FDF (3AFA | (3dAd (3fdf (3afa |"Em" c'2 b4 | (3bc'd' (3c'ba g2 | %118
 (3gab (3agf e2 |"A7" (3efg (3fed (3cBA |"D" B>A E>D B,A,/G/ | F>E F2 G2 | (3AA,D (3FDF (3AFA | %123
 (3dAd (3fdf (3afa |"Em" c'2 b3 b/c'/ | b^a bc' d'e' |"D" f'a d'f ad | %127
"A7" b/a/g/f/ e/d/c/B/ A/G/F/E/ |"D" D z d z z2 |] %129

